color/xmcc.svg

<!-- Generated by IcoMoon.io -->
<svg version="1.1" xmlns="http://www.w3.org/2000/svg" width="32" height="32" viewBox="0 0 32 32">
<title>xmcc</title>
<path fill="#dd0632" d="M32 16c0 8.837-7.163 16-16 16s-16-7.163-16-16c0-8.837 7.163-16 16-16s16 7.163 16 16z"></path>
<path fill="#fff" d="M22.682 7h-5.16l-1.534 2.652-1.529-2.652h-5.162l-5.297 9.175 5.129 8.88 3.477-6.019 3.394 5.86 3.384-5.86 3.485 6.060 5.131-8.88-5.318-9.216zM9.122 21.544l-3.102-5.366 2.467-4.272 3.1 5.37-2.466 4.273v-0.005zM9.506 10.142l0.818-1.421h3.091l1.555 2.693-2.364 4.099-3.1-5.371zM15.986 21.374l-2.362-4.102 2.364-4.097 1.056 1.825 1.31 2.273-2.368 4.102zM17.003 11.414l1.558-2.693h3.091l0.828 1.42-3.12 5.372-2.357-4.1zM24.971 17.951l-2.093 3.631-2.488-4.32 3.1-5.359 0.836 1.44 1.653 2.863-1.008 1.745z"></path>
</svg>

<svg width="32" height="32" viewBox="0 0 32 32" xmlns="http://www.w3.org/2000/svg"><g fill="none"><circle cx="16" cy="16" r="16" fill="#DD0632"/><path d="M22.682 7h-5.16l-1.534 2.652L14.459 7H9.297L4 16.175l5.129 8.88 3.477-6.019L16 24.896l3.384-5.86 3.485 6.06L28 16.216 22.682 7zM9.122 21.544L6.02 16.178l2.467-4.272 3.1 5.37-2.466 4.273v-.005zm.384-11.402l.818-1.421h3.091l1.555 2.693-2.364 4.099-3.1-5.371zm6.48 11.232l-2.362-4.102 2.364-4.097L17.044 15l1.31 2.273-2.366 4.097-.002.005zm1.017-9.96l1.558-2.693h3.091l.828 1.42-3.12 5.372-2.357-4.1zm7.968 6.537l-2.093 3.631-2.488-4.32 3.1-5.359.836 1.44 1.653 2.863-1.008 1.745z" fill="#FFF"/></g></svg>
